X:24
T:Polska efter Lasse i Svarven
T:Barockpolskan
R:sl-polska
S:Lasse i Svarven hade den efter "G\"oran i L\"app"
A:\"Osterg\"otland
Z:id:hn-sp-24
M:3/4
L:1/16
K:Dm
a(ba)(g f)(gf)e (defd) | e(fe)(d c)(dc)=B (ABcA) | d2(d^c d2).e2 .f2.g2 |
(agbg a4) A4 | a(ba)(g f)(gf)e (defd) | e(fe)(d c)(dc)=B (ABcA) |
d2(d^c) (de)(fe) (fg)(ag) | (fed^c) d4 D4 :||: .f2(FE .F2)(fe fag^f) |
.g2(c=B .c2)(C=B, .C4) | .g2(c=B .c2)(g^f g_bag) | .a2(=fe .f2)(FE .F4) |
a(ba)(g f)(gf)e (defd) | e(fe)(d c)(dc)=B (ABcA) |
d2(d^c) (de).f.e (fg).a.g | (fed^c) (c2d2) D4 :|
"varianter"
|:ab{ab}ag fg{fg}fe defd | efed cdc=B AB{Bc}BA | d3^c d2e2 f2g2 |
aba^g g2a2 a4 | ab{ab}ag fgfe defd | efed cdc=B AB{Bc}BA |
d3^c de{g}fe fgag |1 fed^c c2d2 d4 :|2 fed^c c2d2 d2e2 |: .f2FE .F2fe fag^f |
.g2c=B .c2C=B, C2g^f | .g2c=B .c2g^f g2ag | a2=fe .f2FE .F2g2 |
ab{ab}ag fg{fg}fe defd | efed cdc=B AB{Bc}BA |
d3^c de{g}fe fgag | fed^c c2d2 d4 :|

